assets/images/icons/set1/flag.svg

<svg xmlns="http://www.w3.org/2000/svg" width="28" height="28" xmlns:xlink="http://www.w3.org/1999/xlink" id="set1-flag">
  <use xlink:href="#a9" transform="translate(9 8)"/>
  <defs>
    <path id="a9" fill-rule="evenodd" d="M6.5 3V1.5S4.15601-.5 1 1.16956V.5C1 .223999.776001 0 .5 0S0 .223999 0 .5V12h1V7.5c1.42352-.96545 2.65997-.60754 3.5-.30652V9.5c.89038.5264 2.14661.5088 3.08484.49573.13763-.00196.26837-.00379.39014-.00379 1.05401 0 2.03152-.3684 2.85752-1.10547l.167-.14892V1.90002l-.8325.73999C10.152 2.65405 8.61951 3.81152 6.5 3zM1 6.5V2.29456C2.31598 1.5575 4 1.0625 5.5 2v4.5c-.95398-.47949-2.65601-.99048-4.5 0zM5.5 9c1.25.64551 2.78101.27051 4.5-.71851V3.92798c-.763.38501-1.99951.531-3.5.07202v3.5s-.9585.0105-1 0V9z"/>
  </defs>
</svg>

<svg width="28" height="28" viewBox="0 0 28 28" version="1.1" xmlns="http://www.w3.org/2000/svg" xmlns:xlink="http://www.w3.org/1999/xlink">
<title>h4&#200;</title>
<desc>Created using Figma</desc>
<g id="Canvas" transform="translate(-716 -1774)">
<g id="Icon/Presta/White/View">
<g id="Icon/Presta/White/Flag">
<g id="Shape">
<use xlink:href="#path0_fill" transform="translate(725 1782)" fill="#202A37"/>
</g>
</g>
</g>
</g>
<defs>
<path id="path0_fill" fill-rule="evenodd" d="M 6.5 3L 6.5 1.5C 6.5 1.5 4.15601 -0.5 1 1.16956L 1 0.5C 1 0.223999 0.776001 0 0.5 0C 0.223999 0 0 0.223999 0 0.5L 0 12L 1 12L 1 7.5C 2.42352 6.53455 3.65997 6.89246 4.5 7.19348L 4.5 9.5C 5.39038 10.0264 6.64661 10.0088 7.58484 9.99573C 7.72247 9.99377 7.85321 9.99194 7.97498 9.99194C 9.02899 9.99194 10.0065 9.62354 10.8325 8.88647L 10.9995 8.73755L 10.9995 1.90002L 10.167 2.64001C 10.152 2.65405 8.61951 3.81152 6.5 3ZM 1 6.5L 1 2.29456C 2.31598 1.5575 4 1.0625 5.5 2L 5.5 6.5C 4.54602 6.02051 2.84399 5.50952 1 6.5ZM 5.5 9C 6.75 9.64551 8.28101 9.27051 10 8.28149L 10 3.92798C 9.237 4.31299 8.00049 4.45898 6.5 4L 6.5 7.5C 6.5 7.5 5.5415 7.5105 5.5 7.5L 5.5 9Z"/>
</defs>
</svg>
